X: 80
T: Rob Roy MacIntosh
P: piffero primo a0600
O: cfd bk1
%R: march
S: http://ancients.sudburymuster.org/mus/spp/pdf/robroymacF.pdf
Z: 2019 John Chambers <jc:trillian.mit.edu>
M: 2/4
L: 1/16
K: Bdor
z2 | {^A}B8 | {^A}B8 |:\
{^A}B2f2 f2e2 | (3(ded)B2 B4 | f3e f2g2 | aa=g2 f4 | {^A}B2f2 f2e2 |
(3(ded)B2 B2de | f3e fefg | a2^A2 B2z2 :: b2ba f2f2 | baba f4 | a3f e2c2 | a2f2 e2de |
fefc Bcde | fefg a2ga | b3b afde | f2f2 B2z2 :| {^A}B8 | {^A}B6 |: ef | (Tf2B2) (Tf2B2) | cdec B4 |
f3e f2g2 | a6 ga | b3b aaaa | =gggg f2cd | e2f2 f2d2 | B6 :| z2 | {^A}B8 | {^A}B6 ff | b2z2 z2 |]


